icons/2_Variations/Focusrite bg.var.svg

<svg xmlns="http://www.w3.org/2000/svg" width="1024" height="1024" fill="none">
   <g clip-path="url(#a)">
      <path fill="#BA6561" d="M512 1024c282.77 0 512-229.23 512-512S794.77 0 512 0 0 229.23 0 512s229.23 512 512 512Z"/>
      <path fill="#fff" d="M274.06 457.52h-4.27c-2.23-8.09-4.09-16-12.43-19.57-8-3.58-18.55-3.39-27.44-3.39-14.85 0-14.29-1.31-14.66 10.55v42.15c25.42 1.13 29.12-9.22 30.25-22.77h4.26c-.19 8.47-.37 17.13-.74 25.6.37 7.71.55 15.62.74 23.34h-4.26c-2.6-19.76-12.44-20.13-30.25-20.13V517c0 5.84 0 19.77 1.85 24.84 2.78 7.53 11.87 6 18.37 6.4v4.33c-9.46-.19-19.11-.56-28.57-.75-9.45.19-18.73.56-28.56.75v-4.33c5.93 0 13.54 0 16-6.4 1.86-5.07 1.86-19 1.86-25v-53.11c0-6 0-19.95-1.86-25-2.41-6.4-10-6.4-16-6.4V428c11.31.19 22.26.57 33.21.75 19.85-.19 39.69-.56 59.55-.75l3 29.54-.05-.02Zm3.83 54.2c0-16.37 5-38 25.23-38 21.9 0 26.9 21.07 26.9 39.15 0 16.75-5 37.44-25.23 37.44-21.7 0-26.9-20.69-26.9-38.58v-.01Zm70.68 0c0-24.28-21.7-42.34-44.7-42.34-22.64 0-44.52 17.5-44.52 41.59 0 24.85 20.41 43.66 44.52 43.66 24.31 0 44.7-17.5 44.7-42.91Zm82 28.42-3.89-3.39c-5.94 7-14.1 11.85-23.38 11.85-21 0-26.71-18.81-26.71-36.89 0-16.56 6.12-37.26 26.16-37.26 6.86 0 8.35 1.51 10.57 7.15 1.3 3.57 3.71 7.35 8.16 7.35 3.34 0 6.12-3.58 6.12-7 0-10.36-16.87-12.61-24.11-12.61-25.78 0-45.45 19-45.45 45.36 0 23.33 16.89 39.89 39.88 39.89 12.06 0 24.87-4.7 32.65-14.49v.04Zm29.31-17.69v-51.38c-4.64.18-9.65.57-14.47.75-5.19-.19-10.2-.57-15.4-.75v3.58c15.21 2.25 14.1 6.59 14.1 20.89v32.19c0 16.55 6.87 26.91 25.61 26.91 12.43 0 24.3-7.34 31-17.69l3.9 17.69 25.78-6.77v-4.33c-2.41.19-4.82.57-7 .57-6.86 0-6.86-7.53-6.86-12.61v-60.6c-4.64.37-9.65.56-14.47.94-5.2-.38-10.2-.57-15.4-.94v3.77c15.21 2.25 14.09 6.59 14.09 20.89v25.22c0 14.49-10.75 27.85-25.41 27.85-14.47 0-15.4-15.06-15.4-26.16l-.07-.02Zm80.87 30.87 4.63-5.46c5.57 4.52 13.36 6.77 20.42 6.77 14.28 0 27.26-9.41 27.26-24.83 0-16.94-11.68-21.83-24.49-28.61-7-4-17.24-7.34-17.24-17.13 0-6.77 5.75-10.35 11.87-10.35 11.69 0 15.77 10 19.11 19.38H586l.37-23.53h-2.23l-3.7 4.52a38.387 38.387 0 0 0-18-4.7c-12.79 0-23 9.6-23 22.59 0 14.12 11.5 20.32 22.26 26 8 4.14 18.74 8.47 18.74 19.19 0 9-7.42 13.17-15.59 13.17-13.72 0-20-11.85-23-23.9h-3.7l.74 26.92 1.86-.03Zm69.58-45.55v23.15c0 12.41.93 16.93-13 17.87v3.76c7.23-.19 14.28-.56 21.52-.75 7.05.19 14.29.56 21.34.75v-3.76c-15.58-.75-14.1-5.27-14.1-19v-18.63c0-8.67 0-17.88 4.27-25.6 2.78-4.7 8.9-9.41 14.47-9.41 7.24 0 5.56 9.79 13.35 9.79a6.792 6.792 0 0 0 6.5-6.78c0-7-7.42-9.79-13.17-9.79-12.8 0-22.08 7.53-26.9 19h-.37a61.228 61.228 0 0 0-2.23-19c-8.16 1.88-16.33 5.27-25 5.83v3.8c5.94 0 10.58-.75 12.25 6 1.29 4.33 1.11 17.69 1.11 22.77h-.04Zm70.12-63.52a10.073 10.073 0 0 0 3.086 7.184 10.091 10.091 0 0 0 7.294 2.816c5.19 0 9.46-4.51 9.46-10a9.901 9.901 0 0 0-9.83-10.16 10.062 10.062 0 0 0-7.114 3 10.06 10.06 0 0 0-2.886 7.16h-.01Zm20 25.12-29.32 5.83v3.8c3.71-.19 11.5-.56 12.8 4.15.75 2.82.75 17.31.75 20.89v26.92c-.19 12.41.92 16.93-12.81 17.87v3.76c7.23-.19 14.47-.56 21.71-.75 6.68.19 13.53.56 19.85.75v-3.76c-14.66-.94-12.62-6.59-13-19v-60.46h.02Zm13.55 8.28h9.47v57.59c0 14.12 9.09 19.38 22.44 19.38 8.91 0 18.19-3 21.53-12l-3.34-2.44c-3.53 4.7-6.87 8.47-13.36 8.47-9.83 0-11.51-8.85-11.51-17.32v-53.68h21.15v-5.08h-21.17v-22h-2.78c-3.9 10.73-13.17 18.26-22.45 23.71v3.38l.02-.01Zm105.35 19h-30.63c2.23-12.23 7.79-23 21.7-23 11.7 0 18 7.53 18 19.19 0 4.71-6.13 3.77-9.09 3.77l.02.04Zm24.11 42-3.89-4c-5.57 7.53-13.92 13.93-23.38 13.93-19.85 0-29.12-19.95-29.12-37.83l.74-9H841c1.85 0 4.64.75 4.64-1.69 0-20.32-17.25-30.68-35.43-30.68-24.11 0-41.74 21.27-41.74 44.8 0 24.09 18.92 40.45 41.92 40.45 13.92 0 24.31-5.08 33-16l.07.02Z"/>
   </g>
   <defs>
      <clipPath id="a">
         <path fill="#fff" d="M0 0h1024v1024H0z"/>
      </clipPath>
   </defs>
</svg>

<svg width="1024" height="1024" viewBox="0 0 1024 1024" fill="none" xmlns="http://www.w3.org/2000/svg">
<g clip-path="url(#clip0_3_86)">
<path d="M512 1024C794.77 1024 1024 794.77 1024 512C1024 229.23 794.77 0 512 0C229.23 0 0 229.23 0 512C0 794.77 229.23 1024 512 1024Z" fill="#BA6561"/>
<path d="M274.06 457.52H269.79C267.56 449.43 265.7 441.52 257.36 437.95C249.36 434.37 238.81 434.56 229.92 434.56C215.07 434.56 215.63 433.25 215.26 445.11V487.26C240.68 488.39 244.38 478.04 245.51 464.49H249.77C249.58 472.96 249.4 481.62 249.03 490.09C249.4 497.8 249.58 505.71 249.77 513.43H245.51C242.91 493.67 233.07 493.3 215.26 493.3V517C215.26 522.84 215.26 536.77 217.11 541.84C219.89 549.37 228.98 547.84 235.48 548.24V552.57C226.02 552.38 216.37 552.01 206.91 551.82C197.46 552.01 188.18 552.38 178.35 552.57V548.24C184.28 548.24 191.89 548.24 194.35 541.84C196.21 536.77 196.21 522.84 196.21 516.84V463.73C196.21 457.73 196.21 443.78 194.35 438.73C191.94 432.33 184.35 432.33 178.35 432.33V428C189.66 428.19 200.61 428.57 211.56 428.75C231.41 428.56 251.25 428.19 271.11 428L274.11 457.54L274.06 457.52ZM277.89 511.72C277.89 495.35 282.89 473.72 303.12 473.72C325.02 473.72 330.02 494.79 330.02 512.87C330.02 529.62 325.02 550.31 304.79 550.31C283.09 550.31 277.89 529.62 277.89 511.73V511.72ZM348.57 511.72C348.57 487.44 326.87 469.38 303.87 469.38C281.23 469.38 259.35 486.88 259.35 510.97C259.35 535.82 279.76 554.63 303.87 554.63C328.18 554.63 348.57 537.13 348.57 511.72ZM430.57 540.14L426.68 536.75C420.74 543.75 412.58 548.6 403.3 548.6C382.3 548.6 376.59 529.79 376.59 511.71C376.59 495.15 382.71 474.45 402.75 474.45C409.61 474.45 411.1 475.96 413.32 481.6C414.62 485.17 417.03 488.95 421.48 488.95C424.82 488.95 427.6 485.37 427.6 481.95C427.6 471.59 410.73 469.34 403.49 469.34C377.71 469.34 358.04 488.34 358.04 514.7C358.04 538.03 374.93 554.59 397.92 554.59C409.98 554.59 422.79 549.89 430.57 540.1V540.14ZM459.88 522.45V471.07C455.24 471.25 450.23 471.64 445.41 471.82C440.22 471.63 435.21 471.25 430.01 471.07V474.65C445.22 476.9 444.11 481.24 444.11 495.54V527.73C444.11 544.28 450.98 554.64 469.72 554.64C482.15 554.64 494.02 547.3 500.72 536.95L504.62 554.64L530.4 547.87V543.54C527.99 543.73 525.58 544.11 523.4 544.11C516.54 544.11 516.54 536.58 516.54 531.5V470.9C511.9 471.27 506.89 471.46 502.07 471.84C496.87 471.46 491.87 471.27 486.67 470.9V474.67C501.88 476.92 500.76 481.26 500.76 495.56V520.78C500.76 535.27 490.01 548.63 475.35 548.63C460.88 548.63 459.95 533.57 459.95 522.47L459.88 522.45ZM540.75 553.32L545.38 547.86C550.95 552.38 558.74 554.63 565.8 554.63C580.08 554.63 593.06 545.22 593.06 529.8C593.06 512.86 581.38 507.97 568.57 501.19C561.57 497.19 551.33 493.85 551.33 484.06C551.33 477.29 557.08 473.71 563.2 473.71C574.89 473.71 578.97 483.71 582.31 493.09H586L586.37 469.56H584.14L580.44 474.08C574.916 471.061 568.734 469.447 562.44 469.38C549.65 469.38 539.44 478.98 539.44 491.97C539.44 506.09 550.94 512.29 561.7 517.97C569.7 522.11 580.44 526.44 580.44 537.16C580.44 546.16 573.02 550.33 564.85 550.33C551.13 550.33 544.85 538.48 541.85 526.43H538.15L538.89 553.35L540.75 553.32ZM610.33 507.77V530.92C610.33 543.33 611.26 547.85 597.33 548.79V552.55C604.56 552.36 611.61 551.99 618.85 551.8C625.9 551.99 633.14 552.36 640.19 552.55V548.79C624.61 548.04 626.09 543.52 626.09 529.79V511.16C626.09 502.49 626.09 493.28 630.36 485.56C633.14 480.86 639.26 476.15 644.83 476.15C652.07 476.15 650.39 485.94 658.18 485.94C659.928 485.865 661.58 485.118 662.791 483.855C664.002 482.592 664.679 480.91 664.68 479.16C664.68 472.16 657.26 469.37 651.51 469.37C638.71 469.37 629.43 476.9 624.61 488.37H624.24C624.497 481.959 623.744 475.547 622.01 469.37C613.85 471.25 605.68 474.64 597.01 475.2V479C602.95 479 607.59 478.25 609.26 485C610.55 489.33 610.37 502.69 610.37 507.77H610.33ZM680.45 444.25C680.46 445.593 680.738 446.92 681.268 448.153C681.798 449.387 682.569 450.502 683.536 451.434C684.503 452.365 685.646 453.094 686.899 453.578C688.151 454.061 689.488 454.29 690.83 454.25C696.02 454.25 700.29 449.74 700.29 444.25C700.324 442.934 700.096 441.624 699.618 440.398C699.141 439.171 698.423 438.052 697.508 437.106C696.593 436.16 695.498 435.406 694.288 434.888C693.077 434.37 691.776 434.099 690.46 434.09C689.135 434.097 687.824 434.365 686.603 434.88C685.383 435.395 684.276 436.146 683.346 437.09C682.417 438.034 681.684 439.153 681.188 440.382C680.693 441.611 680.445 442.925 680.46 444.25H680.45ZM700.45 469.37L671.13 475.2V479C674.84 478.81 682.63 478.44 683.93 483.15C684.68 485.97 684.68 500.46 684.68 504.04V530.96C684.49 543.37 685.6 547.89 671.87 548.83V552.59C679.1 552.4 686.34 552.03 693.58 551.84C700.26 552.03 707.11 552.4 713.43 552.59V548.83C698.77 547.89 700.81 542.24 700.43 529.83V469.37H700.45ZM714 477.65H723.47V535.24C723.47 549.36 732.56 554.62 745.91 554.62C754.82 554.62 764.1 551.62 767.44 542.62L764.1 540.18C760.57 544.88 757.23 548.65 750.74 548.65C740.91 548.65 739.23 539.8 739.23 531.33V477.65H760.38V472.57H739.21V450.57H736.43C732.53 461.3 723.26 468.83 713.98 474.28V477.66L714 477.65ZM819.35 496.65H788.72C790.95 484.42 796.51 473.65 810.42 473.65C822.12 473.65 828.42 481.18 828.42 492.84C828.42 497.55 822.29 496.61 819.33 496.61L819.35 496.65ZM843.46 538.65L839.57 534.65C834 542.18 825.65 548.58 816.19 548.58C796.34 548.58 787.07 528.63 787.07 510.75L787.81 501.75H841C842.85 501.75 845.64 502.5 845.64 500.06C845.64 479.74 828.39 469.38 810.21 469.38C786.1 469.38 768.47 490.65 768.47 514.18C768.47 538.27 787.39 554.63 810.39 554.63C824.31 554.63 834.7 549.55 843.39 538.63L843.46 538.65Z" fill="white"/>
</g>
<defs>
<clipPath id="clip0_3_86">
<rect width="1024" height="1024" fill="white"/>
</clipPath>
</defs>
</svg>
